static/img/pages/index/docker.svg

<svg width="60" height="60" viewBox="0 0 60 60" fill="none" xmlns="http://www.w3.org/2000/svg"><circle cx="30" cy="30" r="30" fill="#0091E2"/><path d="M50.3348 26.7773C50.2242 26.6852 49.2294 25.9298 47.0924 25.9298C46.5397 25.9298 45.9686 25.9851 45.4159 26.0772C45.0106 23.2586 42.6709 21.8953 42.5788 21.8216L42.0077 21.49L41.6393 22.0242C41.1787 22.7427 40.8287 23.5533 40.626 24.3823C40.2391 25.9851 40.4786 27.4958 41.2892 28.7854C40.3128 29.338 38.7285 29.467 38.3969 29.4854H12.2367C11.5551 29.4854 11.0024 30.0381 11.0024 30.7197C10.9656 33.0041 11.3524 35.2886 12.1446 37.444C13.0473 39.8021 14.3922 41.5523 16.1239 42.6208C18.0767 43.8182 21.2638 44.4999 24.8562 44.4999C26.4774 44.4999 28.0986 44.3525 29.7014 44.0577C31.9305 43.6524 34.0676 42.8787 36.0388 41.7549C37.66 40.8153 39.1154 39.6179 40.3497 38.2178C42.4314 35.8781 43.6658 33.2621 44.5685 30.9408C44.6974 30.9408 44.808 30.9408 44.9369 30.9408C47.2029 30.9408 48.603 30.0381 49.3768 29.2643C49.8926 28.7854 50.2795 28.1958 50.5558 27.5326L50.7216 27.0536L50.3348 26.7773Z" fill="white"/><path d="M14.6687 28.7301H18.169C18.3348 28.7301 18.4822 28.6012 18.4822 28.417V25.2851C18.4822 25.1193 18.3532 24.9719 18.169 24.9719H14.6687C14.5029 24.9719 14.3555 25.1009 14.3555 25.2851V28.417C14.374 28.6012 14.5029 28.7301 14.6687 28.7301Z" fill="white"/><path d="M19.4953 28.7301H22.9956C23.1614 28.7301 23.3088 28.6012 23.3088 28.417V25.2851C23.3088 25.1193 23.1798 24.9719 22.9956 24.9719H19.4953C19.3295 24.9719 19.1821 25.1009 19.1821 25.2851V28.417C19.2006 28.6012 19.3295 28.7301 19.4953 28.7301Z" fill="white"/><path d="M24.4142 28.7301H27.9145C28.0803 28.7301 28.2277 28.6012 28.2277 28.417V25.2851C28.2277 25.1193 28.0987 24.9719 27.9145 24.9719H24.4142C24.2484 24.9719 24.101 25.1009 24.101 25.2851V28.417C24.101 28.6012 24.23 28.7301 24.4142 28.7301Z" fill="white"/><path d="M29.2594 28.7301H32.7597C32.9255 28.7301 33.0728 28.6012 33.0728 28.417V25.2851C33.0728 25.1193 32.9439 24.9719 32.7597 24.9719H29.2594C29.0935 24.9719 28.9462 25.1009 28.9462 25.2851V28.417C28.9462 28.6012 29.0935 28.7301 29.2594 28.7301Z" fill="white"/><path d="M19.4953 24.2533H22.9956C23.1614 24.2533 23.3088 24.106 23.3088 23.9402V20.8083C23.3088 20.6425 23.1798 20.4951 22.9956 20.4951H19.4953C19.3295 20.4951 19.1821 20.6241 19.1821 20.8083V23.9402C19.2006 24.106 19.3295 24.2533 19.4953 24.2533Z" fill="white"/><path d="M24.4142 24.2533H27.9145C28.0803 24.2533 28.2277 24.106 28.2277 23.9402V20.8083C28.2277 20.6425 28.0987 20.4951 27.9145 20.4951H24.4142C24.2484 20.4951 24.101 20.6241 24.101 20.8083V23.9402C24.101 24.106 24.23 24.2533 24.4142 24.2533Z" fill="white"/><path d="M29.2594 24.2533H32.7597C32.9255 24.2533 33.0728 24.106 33.0728 23.9402V20.8083C33.0728 20.6425 32.9255 20.4951 32.7597 20.4951H29.2594C29.0935 20.4951 28.9462 20.6241 28.9462 20.8083V23.9402C28.9462 24.106 29.0935 24.2533 29.2594 24.2533Z" fill="white"/><path d="M29.2594 19.7582H32.7597C32.9255 19.7582 33.0728 19.6293 33.0728 19.445V16.3132C33.0728 16.1474 32.9255 16 32.7597 16H29.2594C29.0935 16 28.9462 16.129 28.9462 16.3132V19.445C28.9462 19.6108 29.0935 19.7582 29.2594 19.7582Z" fill="white"/><path d="M34.1411 28.7301H37.6414C37.8072 28.7301 37.9546 28.6012 37.9546 28.417V25.2851C37.9546 25.1193 37.8256 24.9719 37.6414 24.9719H34.1411C33.9753 24.9719 33.8279 25.1009 33.8279 25.2851V28.417C33.8463 28.6012 33.9753 28.7301 34.1411 28.7301Z" fill="white"/></svg>

<svg width="60" height="60" viewBox="0 0 60 60" fill="none" xmlns="http://www.w3.org/2000/svg"><circle cx="30" cy="30" r="30" fill="#0091E2"/><path d="M50.335 26.777c-.11-.092-1.106-.847-3.243-.847-.552 0-1.123.055-1.676.147-.405-2.818-2.745-4.182-2.837-4.255l-.571-.332-.369.534c-.46.719-.81 1.53-1.013 2.358-.387 1.603-.147 3.114.663 4.403-.976.553-2.56.682-2.892.7h-26.16c-.682 0-1.235.553-1.235 1.235a18.642 18.642 0 001.143 6.724c.902 2.358 2.247 4.108 3.979 5.177 1.953 1.197 5.14 1.879 8.732 1.879a26.78 26.78 0 004.845-.442 19.996 19.996 0 006.338-2.303 17.347 17.347 0 004.31-3.537c2.082-2.34 3.317-4.956 4.22-7.277h.368c2.266 0 3.666-.903 4.44-1.677a4.905 4.905 0 001.179-1.731l.166-.48-.387-.276z" fill="#fff"/><path d="M14.669 28.73h3.5a.31.31 0 00.313-.313v-3.132a.31.31 0 00-.313-.313h-3.5a.31.31 0 00-.314.313v3.132c.019.184.148.313.314.313zm4.826 0h3.5a.31.31 0 00.314-.313v-3.132a.31.31 0 00-.313-.313h-3.5a.31.31 0 00-.314.313v3.132c.019.184.148.313.313.313zm4.919 0h3.5a.31.31 0 00.314-.313v-3.132a.31.31 0 00-.314-.313h-3.5a.31.31 0 00-.313.313v3.132a.3.3 0 00.313.313zm4.846 0h3.5a.31.31 0 00.313-.313v-3.132a.31.31 0 00-.313-.313h-3.5a.31.31 0 00-.314.313v3.132a.31.31 0 00.313.313zm-9.765-4.477h3.5a.323.323 0 00.314-.313v-3.132a.31.31 0 00-.313-.313h-3.5a.31.31 0 00-.314.313v3.132c.019.166.148.313.313.313zm4.919 0h3.5a.323.323 0 00.314-.313v-3.132a.31.31 0 00-.314-.313h-3.5a.31.31 0 00-.313.313v3.132a.31.31 0 00.313.313zm4.846 0h3.5a.323.323 0 00.313-.313v-3.132a.323.323 0 00-.313-.313h-3.5a.31.31 0 00-.314.313v3.132c0 .166.147.313.313.313zm0-4.495h3.5a.31.31 0 00.313-.313v-3.132A.323.323 0 0032.76 16h-3.5a.31.31 0 00-.314.313v3.132c0 .166.147.313.313.313zm4.881 8.972h3.5a.31.31 0 00.314-.313v-3.132a.31.31 0 00-.314-.313h-3.5a.31.31 0 00-.313.313v3.132c.018.184.147.313.313.313z" fill="#fff"/></svg>
